brigadir/img/svg/menu_rt_favorites.svg

<svg width="26" height="24" viewBox="0 0 26 24" fill="none" xmlns="http://www.w3.org/2000/svg">
<path fill-rule="evenodd" clip-rule="evenodd" d="M4.99257 24L13 19.9053L21.0074 24L19.477 15.321L26 9.13647L16.9896 7.86297L13 0L9.01036 7.86297L0 9.13647L6.52295 15.321L4.99257 24ZM17.8138 19.6738L13 17.2122L8.18618 19.6738L9.10443 14.4663L5.25477 10.8164L10.579 10.0638L13 5.29244L15.421 10.0638L20.7452 10.8164L16.8956 14.4663L17.8138 19.6738Z" fill="white"/>
</svg>

<svg width="26" height="24" fill="none" xmlns="http://www.w3.org/2000/svg"><path fill-rule="evenodd" clip-rule="evenodd" d="M4.993 24L13 19.905 21.007 24l-1.53-8.679L26 9.136l-9.01-1.273L13 0 9.01 7.863 0 9.136l6.523 6.185L4.993 24zm12.82-4.326L13 17.212l-4.814 2.462.918-5.208-3.85-3.65 5.325-.752L13 5.292l2.421 4.772 5.324.752-3.85 3.65.919 5.208z" fill="#fff"/></svg>
